main/images/icons/techpage/encryption.svg

<?xml version="1.0" encoding="iso-8859-1"?>
<!-- Generator: Adobe Illustrator 18.1.1, SVG Export Plug-In . SVG Version: 6.00 Build 0)  -->
<svg version="1.1" id="Capa_1" xmlns="http://www.w3.org/2000/svg" xmlns:xlink="http://www.w3.org/1999/xlink" x="0px" y="0px"
	 viewBox="0 0 14.091 14.091" style="enable-background:new 0 0 14.091 14.091;" xml:space="preserve">
<g>
	<g>
		<path style="fill:#030104;" d="M0.742,10.601V9.093c0.915,0.837,2.795,1.371,4.972,1.371c0.22,0,0.435-0.009,0.647-0.02
			l1.001-1.001C6.854,9.516,6.303,9.559,5.714,9.559c-2.93,0-4.972-1.025-4.972-1.945V6.106c0.915,0.837,2.795,1.372,4.972,1.372
			c0.977,0,1.887-0.112,2.683-0.307c0.099-0.389,0.255-0.763,0.47-1.106C8.033,6.347,6.955,6.531,5.715,6.531
			c-2.93,0-4.972-1.025-4.972-1.945V3.25C1.637,4.008,3.708,4.4,5.715,4.4c2.009,0,4.079-0.392,4.974-1.15v1.294
			c0.192-0.078,0.393-0.138,0.597-0.183v-1.38c0-0.217-0.134-0.879-0.134-0.985C11.152,0.7,8.35,0,5.715,0
			C3.081,0,0.28,0.7,0.28,1.996c0,0.105-0.134,0.768-0.134,0.985v1.604c0,0.247,0.078,0.483,0.216,0.708L0.344,5.324
			C0.213,5.552,0.146,5.783,0.146,6.011v1.604c0,0.239,0.074,0.469,0.204,0.687l-0.006,0.01C0.213,8.541,0.146,8.771,0.146,8.999
			v1.604c0,1.232,1.828,2.231,4.339,2.48c0.039-0.244,0.077-0.434,0.118-0.587C2.281,12.276,0.742,11.4,0.742,10.601z"/>
		<path style="fill:#030104;" d="M13.231,5.899c-0.953-0.953-2.499-0.953-3.453,0C9.083,6.594,8.897,7.605,9.216,8.471l-3.855,3.854
			c-0.063,0.063-0.265,1.671-0.265,1.671l0.095,0.095c0,0,1.549-0.261,1.613-0.323l0.369-0.369h0.78
			c0.089,0,0.161-0.071,0.161-0.161v-0.73h0.39c0.089,0,0.16-0.072,0.16-0.161v-0.441l0.052-0.051h0.628
			c0.09,0,0.162-0.072,0.162-0.161v-0.628l1.152-1.152c0.866,0.319,1.877,0.134,2.572-0.563C14.184,8.398,14.184,6.852,13.231,5.899
			z M6.16,12.591c-0.095,0.094-0.247,0.094-0.342,0c-0.094-0.094-0.094-0.247,0-0.342l3.513-3.513C9.405,8.882,9.494,9.02,9.6,9.151
			L6.16,12.591z M13.026,7.33c-0.339,0.339-0.889,0.339-1.228,0s-0.339-0.889,0-1.228c0.339-0.338,0.889-0.339,1.228,0
			S13.365,6.991,13.026,7.33z"/>
	</g>
</g>
<g>
</g>
<g>
</g>
<g>
</g>
<g>
</g>
<g>
</g>
<g>
</g>
<g>
</g>
<g>
</g>
<g>
</g>
<g>
</g>
<g>
</g>
<g>
</g>
<g>
</g>
<g>
</g>
<g>
</g>
</svg>

<?xml version="1.0" encoding="UTF-8"?>
<svg width="14px" height="15px" viewBox="0 0 14 15" version="1.1" xmlns="http://www.w3.org/2000/svg" xmlns:xlink="http://www.w3.org/1999/xlink">
    <!-- Generator: Sketch 46.2 (44496) - http://www.bohemiancoding.com/sketch -->
    <title>encryption</title>
    <desc>Created with Sketch.</desc>
    <defs></defs>
    <g id="Page-1" stroke="none" stroke-width="1" fill="none" fill-rule="evenodd">
        <g id="encryption" fill-rule="nonzero" fill="#66CCFF">
            <path d="M0.742,10.601 L0.742,9.093 C1.657,9.93 3.537,10.464 5.714,10.464 C5.934,10.464 6.149,10.455 6.361,10.444 L7.362,9.443 C6.854,9.516 6.303,9.559 5.714,9.559 C2.784,9.559 0.742,8.534 0.742,7.614 L0.742,6.106 C1.657,6.943 3.537,7.478 5.714,7.478 C6.691,7.478 7.601,7.366 8.397,7.171 C8.496,6.782 8.652,6.408 8.867,6.065 C8.033,6.347 6.955,6.531 5.715,6.531 C2.785,6.531 0.743,5.506 0.743,4.586 L0.743,3.25 C1.637,4.008 3.708,4.4 5.715,4.4 C7.724,4.4 9.794,4.008 10.689,3.25 L10.689,4.544 C10.881,4.466 11.082,4.406 11.286,4.361 L11.286,2.981 C11.286,2.764 11.152,2.102 11.152,1.996 C11.152,0.7 8.35,0 5.715,0 C3.081,0 0.28,0.7 0.28,1.996 C0.28,2.101 0.146,2.764 0.146,2.981 L0.146,4.585 C0.146,4.832 0.224,5.068 0.362,5.293 L0.344,5.324 C0.213,5.552 0.146,5.783 0.146,6.011 L0.146,7.615 C0.146,7.854 0.22,8.084 0.35,8.302 L0.344,8.312 C0.213,8.541 0.146,8.771 0.146,8.999 L0.146,10.603 C0.146,11.835 1.974,12.834 4.485,13.083 C4.524,12.839 4.562,12.649 4.603,12.496 C2.281,12.276 0.742,11.4 0.742,10.601 Z" id="Shape"></path>
            <path d="M13.231,5.899 C12.278,4.946 10.732,4.946 9.778,5.899 C9.083,6.594 8.897,7.605 9.216,8.471 L5.361,12.325 C5.298,12.388 5.096,13.996 5.096,13.996 L5.191,14.091 C5.191,14.091 6.74,13.83 6.804,13.768 L7.173,13.399 L7.953,13.399 C8.042,13.399 8.114,13.328 8.114,13.238 L8.114,12.508 L8.504,12.508 C8.593,12.508 8.664,12.436 8.664,12.347 L8.664,11.906 L8.716,11.855 L9.344,11.855 C9.434,11.855 9.506,11.783 9.506,11.694 L9.506,11.066 L10.658,9.914 C11.524,10.233 12.535,10.048 13.23,9.351 C14.184,8.398 14.184,6.852 13.231,5.899 Z M6.16,12.591 C6.065,12.685 5.913,12.685 5.818,12.591 C5.724,12.497 5.724,12.344 5.818,12.249 L9.331,8.736 C9.405,8.882 9.494,9.02 9.6,9.151 L6.16,12.591 Z M13.026,7.33 C12.687,7.669 12.137,7.669 11.798,7.33 C11.459,6.991 11.459,6.441 11.798,6.102 C12.137,5.764 12.687,5.763 13.026,6.102 C13.365,6.441 13.365,6.991 13.026,7.33 Z" id="Shape"></path>
        </g>
    </g>
</svg>
